X:1
T:Title
%%score 1 { 2 | 3 }
L:1/8
Q:1/4=90
M:6/8
K:Db
V:1 treble nm="Drawbar Organ, Soprano"
V:2 bass nm="Church Organ, Jesus Is Calling Today"
V:3 bass 
V:1
 FED DEF | GGG B3 | [EA][EA][FA] [GA]2 [EA] | [FA][FA][EG] [DF]3 | FED DEF | GGG B3 | %6
w: By~James~Holmes~Rosecrans * * * * *||||||
 [EA][EA][FA] [GA][FA][EA] | [Fd]6 | [FA]3- [FA][GB][DF] | [FA][GB][Gc] [Fd]3 | %10
w: ||||
 [Gd]3- [Gd][Gc][GB] | [FA][FA][EG] [DF]3 | [FA]3- [FA][GB][DF] | [FA][GB][Gc] [Fd]3 | %14
w: ||||
 [Gd][Gc][GB] [FA][Gc][Ge] | [Fd]6- | [Fd]3 z3 |] %17
w: |||
V:2
 A,G,F, F,G,A, | B,B,B,[K:treble] D3 | CCD E2 C | DD[K:bass]A, A,3 | A,G,F, F,G,A, | %5
 B,B,B,[K:treble] D3 | CCD EDC | D6 | DDD D .D2 | DD[K:bass]A, A,3 | B,B,B, B, .B,2 | DDA, A,3 | %12
 DDD D .D2 | DD[K:bass]A, A,3 | B,CD DA,A, | A,6- | A,3 z3 |] %17
V:3
 [D,,D,]3 [D,,D,]3 | [G,,G,]3 [G,,G,]3 | A,A,A, A,2 A, | D,D,D, D,3 | [D,,E,]3 [D,,D,]3 | %5
 [G,,G,]3 [G,,G,]3 | A,A,A, A,A,A, | D,6 | D,D,D, D, .D,2 | D,D,D, D,3 | G,G,G, G, .G,2 | %11
 D, .F,2 D,3 | D,D,D, D, .D,2 | D,D,D, D,3 | G,G,G, .A,3 | D,6- | D,3 z3 |] %17

